src/lib/packages/icons/src/assets/line/comment-dots-check.svg

<svg width="24" height="24" viewBox="0 0 24 24" fill="none" xmlns="http://www.w3.org/2000/svg">
<path d="M12.75 20.0031C12.75 20.4171 12.414 20.7531 12 20.7531C10.813 20.7531 9.67496 20.592 8.60596 20.274C7.24196 21.461 5.36393 21.751 3.85693 21.751C3.71193 21.751 3.57111 21.749 3.43311 21.744C2.93311 21.732 2.49497 21.412 2.32397 20.929C2.15197 20.443 2.29408 19.914 2.68408 19.582C3.61608 18.83 3.98892 17.998 4.13892 17.427C2.90192 15.948 2.24902 14.081 2.24902 12.002C2.24902 6.84895 6.25902 3.25098 11.999 3.25098C17.739 3.25098 21.749 6.84995 21.749 12.002C21.749 12.381 21.7271 12.749 21.6841 13.095C21.6311 13.506 21.2459 13.794 20.8469 13.746C20.4359 13.695 20.144 13.3201 20.196 12.9091C20.232 12.6191 20.25 12.31 20.25 12.002C20.25 7.73195 16.857 4.75098 12 4.75098C7.143 4.75098 3.75 7.73295 3.75 12.002C3.75 13.838 4.35498 15.464 5.50098 16.704C5.65598 16.872 5.72692 17.102 5.69092 17.329C5.52292 18.4 4.99511 19.413 4.18311 20.244C5.34311 20.202 6.90304 19.935 7.86304 18.911C8.06504 18.695 8.37703 18.618 8.65503 18.715C9.69003 19.073 10.815 19.254 12 19.254C12.414 19.253 12.75 19.5891 12.75 20.0031ZM20.47 16.136L17.667 18.939L16.53 17.803C16.237 17.51 15.762 17.51 15.469 17.803C15.176 18.096 15.176 18.571 15.469 18.864L17.136 20.531C17.282 20.677 17.474 20.751 17.666 20.751C17.858 20.751 18.05 20.678 18.196 20.531L21.5291 17.198C21.8221 16.905 21.8221 16.43 21.5291 16.137C21.2361 15.844 20.763 15.843 20.47 16.136ZM12.02 11H12.01C11.458 11 11.0149 11.448 11.0149 12C11.0149 12.552 11.468 13 12.02 13C12.573 13 13.02 12.552 13.02 12C13.02 11.448 12.572 11 12.02 11ZM16.02 13C16.573 13 17.02 12.552 17.02 12C17.02 11.448 16.573 11 16.02 11H16.01C15.458 11 15.0149 11.448 15.0149 12C15.0149 12.552 15.468 13 16.02 13ZM8.01001 11C7.45801 11 7.01489 11.448 7.01489 12C7.01489 12.552 7.46802 13 8.02002 13C8.57302 13 9.02002 12.552 9.02002 12C9.02002 11.448 8.57302 11 8.02002 11H8.01001Z" fill="currentColor"/>
</svg>

<svg xmlns="http://www.w3.org/2000/svg" width="24" height="24" fill="none"><path fill="currentColor" d="M12.75 20.003a.75.75 0 0 1-.75.75c-1.187 0-2.325-.161-3.394-.479-1.364 1.187-3.242 1.477-4.75 1.477a11.7 11.7 0 0 1-.423-.007 1.207 1.207 0 0 1-1.109-.815 1.221 1.221 0 0 1 .36-1.347c.932-.752 1.305-1.584 1.455-2.155-1.237-1.479-1.89-3.346-1.89-5.425 0-5.153 4.01-8.751 9.75-8.751s9.75 3.599 9.75 8.751c0 .379-.022.747-.065 1.093a.76.76 0 0 1-.837.651.749.749 0 0 1-.651-.837c.036-.29.054-.599.054-.907 0-4.27-3.393-7.251-8.25-7.251s-8.25 2.982-8.25 7.251c0 1.836.605 3.462 1.751 4.702a.749.749 0 0 1 .19.625c-.168 1.071-.696 2.084-1.508 2.915 1.16-.042 2.72-.309 3.68-1.333a.75.75 0 0 1 .792-.196c1.035.358 2.16.539 3.345.539a.749.749 0 0 1 .75.75Zm7.72-3.867-2.803 2.803-1.137-1.136a.75.75 0 1 0-1.061 1.061l1.667 1.667a.748.748 0 0 0 1.06 0l3.333-3.333a.75.75 0 0 0-1.059-1.062ZM12.02 11h-.01a.996.996 0 0 0-.995 1c0 .552.453 1 1.005 1a1 1 0 1 0 0-2Zm4 2a1 1 0 1 0 0-2h-.01a.996.996 0 0 0-.995 1c0 .552.453 1 1.005 1Zm-8.01-2a.996.996 0 0 0-.995 1c0 .552.453 1 1.005 1a1 1 0 1 0 0-2h-.01Z"/></svg>
